X: 1
T: O'Byrne's
M: 4/4
L: 1/8
R: hornpipe
K: Gmaj
|: (3DEF |\ 
G2 G>D G>Bd>B | c>BA>G F>GA>B | d>ef>d e>d (3ABc | (3ded e>d c>AF>A |
G2 G>D G>Bd>B | c>BA>G F>GA>B | d>ef>d e<dD>F | AGG>F G2 :|
|: B>c |\ 
d2 B>d g>dB>G | A2 D>F A>GF>E | (3ddd d>B c>A (3FED | G>BA>F G>DB>D |
G>DB>D G>Bd>B | c>BA>G F>GA>B | d>ef>d e<dD>F | AGG>F G2 :|
